!!!OTL: 335. Liebe und Wein.
!!!COM: Volksweise
!!!ARE: Europa, Mitteleuropa, Deutschland
!!!SCT: B0335
!!!TXL: @@DE
!!!YEM: Copyright 1995, estate of Helmut Schaffrath.
**kern	**text
*ICvox	*
*Ivox	*
*clefG2	*
*M6/8	*
*k[b-]	*
*F:	*
!LO:TX:a:t=Lebhaft.	!
{16fL	Was
16gJ	.
=1	=1
4a	iſt
8a	des
4cc	Le-
8cc	-bens
=2	=2
4a	höch-
8a	-ſte
4f}	Luſt?
{8f	Die
=3	=3
4g	Lie-
8g	-be
8ccL	und
8b-J	.
8g	der
=4	=4
[4.f	Wein.
8f]	.
8r}	.
{16fL	Ruht
16gJ	.
=5	=5
4a	Lieb-
8a	-chen
4cc	ſanft
8cc	an
=6	=6
4a	mei-
8a	-ner
4f}	Bruſt,
{8f	träum'
=7	=7
4g	ich
8g	ein
8ccL	Fürſt
8b-J	.
8g	ʒu
=8	=8
[4.f	ſein,
8f]	.
8r}	.
{8a	und
=9	=9
4g	bei
8g	dem
4cc	ed-
8b-	-len
=10	=10
4a	Re-
8cc	-ben-
4ff}	-ſaft
{8a	träum'
=11	=11
4g	ich
8g	von
4cc	Kron'
8b-	und
=12	=12
4a	Kai-
8cc	-ſer-
4ff}	-ſchaft.
=||	=||
{16fL	Vi-
16gJ	.
=13	=13
8.a	-val-
16a	-le-
8a	-ra
8.cc	val-
16cc	-le-
8cc	-ra,
=14	=14
8.a	val-
16a	-le-
8a	-ra-
4f}	-la,
{8f	vi-
=15	=15
8.g	-val-
16g	-le-
8g	-ra-
8cc	-val-
8b-	-le-
8g	-ra-
=16	=16
[4.f	-la!
8f]	.
8r}	.
==	==
!!!AGN: Trink - Lied
!!!GTL: Wein- und Trinklieder
!!!ONB: ESAC (Essen Associative Code) Database: BOEHME
!!!AMT: compound duple
!!!AIN: vox
!!!EED: Helmut Schaffrath
!!!EEV: 1.0
!!Volksweiſe nach Wenʒel Müller. 1794.
!!@@COMMENT:"Dies Liedchen, vom Volke am Rhein und von Studenten geſungen, kommt ʒuerſt vor in "Die
!!Schweſtern von Prag'. Singſpiel von J. Perinet. Muſik von Wenʒel Müller. 1794 gedruckt (aufgeſ.
!!1793). Später findet man es ʒuweilen als 2. und 3. Strophe in dem Bierliede: "Jch hab' den
!!ganʒen Vormittag auf meiner Kneip' ſtudirt", was wohl ʒuerſt in Serigs Auswahl deutſcher
!!Lieder". Leipʒig. 1825 S. 182 gedruckt iſt. Das Bierlied hat die Melodie von Wenʒel Müller ſich
!!angeeignet, und damit ſind auch die beiden Strophen herübergeʒogen worden. (Bergl. Liederhort III S. 498)."
!!@@END:
!!!URL-scan: https://archive.org/details/BoehmeVtLieder1895/page/n281/mode/2up
!!!ENC: Anna Maria Matuszewska
!!!EEV: 2024/04/07
*-	*-
